wp-expand-tabs-free/admin/img/tabs-alignment/horizontal-top/horizontal-justified.svg

<svg width="120" height="92" viewBox="0 0 120 92" fill="none" xmlns="http://www.w3.org/2000/svg">
<rect x="1" y="1" width="118" height="90" rx="3" fill="white"/>
<path d="M43 25V26H44H97L97.0544 26C97.4785 26.0001 97.8906 26.0002 98.2305 25.9545C98.4761 25.9215 98.7438 25.8581 99 25.7212V74C99 74.4997 98.9979 74.7738 98.9723 74.964C98.972 74.9665 98.9716 74.9689 98.9713 74.9713C98.9689 74.9716 98.9665 74.972 98.964 74.9723C98.7738 74.9979 98.4997 75 98 75H22C21.5003 75 21.2262 74.9979 21.036 74.9723C21.0335 74.972 21.0311 74.9716 21.0287 74.9713C21.0284 74.9689 21.028 74.9665 21.0277 74.964C21.0021 74.7738 21 74.4997 21 74V18C21 17.5003 21.0021 17.2262 21.0277 17.036C21.028 17.0335 21.0284 17.0311 21.0287 17.0287C21.0311 17.0284 21.0335 17.028 21.036 17.0277C21.2262 17.0021 21.5003 17 22 17H42C42.4997 17 42.7738 17.0021 42.964 17.0277C42.9665 17.028 42.9689 17.0284 42.9713 17.0287C42.9716 17.0311 42.972 17.0335 42.9723 17.036C42.9979 17.2262 43 17.5003 43 18V25Z" fill="white" stroke="#8796A1" stroke-width="2"/>
<path d="M48 18C48 17.0572 48 16.5858 48.2929 16.2929C48.5858 16 49.0572 16 50 16H70C70.9428 16 71.4142 16 71.7071 16.2929C72 16.5858 72 17.0572 72 18V25C72 25.9428 72 26.4142 71.7071 26.7071C71.4142 27 70.9428 27 70 27H50C49.0572 27 48.5858 27 48.2929 26.7071C48 26.4142 48 25.9428 48 25V18Z" fill="#8796A1"/>
<path d="M76 18C76 17.0572 76 16.5858 76.2929 16.2929C76.5858 16 77.0572 16 78 16H98C98.9428 16 99.4142 16 99.7071 16.2929C100 16.5858 100 17.0572 100 18V25C100 25.9428 100 26.4142 99.7071 26.7071C99.4142 27 98.9428 27 98 27H78C77.0572 27 76.5858 27 76.2929 26.7071C76 26.4142 76 25.9428 76 25V18Z" fill="#8796A1"/>
<rect x="1" y="1" width="118" height="90" rx="3" stroke="#CCCCCC" stroke-width="2"/>
</svg>

<svg xmlns="http://www.w3.org/2000/svg" width="120" height="92" fill="none"><g fill="#fff"><rect x="1" y="1" width="118" height="90" rx="3"/><path d="M43 25v1h1 53 .054l1.176-.046c.246-.033.513-.096.769-.233V74l-.028.964c-.199.034-.473.036-.972.036H22c-.5 0-.774-.002-.964-.028C21.002 74.774 21 74.5 21 74V18l.028-.964c.198-.034.473-.036.972-.036h20l.964.028c.034.198.036.473.036.972v7z" stroke="#8796a1" stroke-width="2"/></g><path d="M48 18c0-.943 0-1.414.293-1.707S49.057 16 50 16h20c.943 0 1.414 0 1.707.293S72 17.057 72 18v7c0 .943 0 1.414-.293 1.707S70.943 27 70 27H50c-.943 0-1.414 0-1.707-.293S48 25.943 48 25v-7zm28 0c0-.943 0-1.414.293-1.707S77.057 16 78 16h20c.943 0 1.414 0 1.707.293S100 17.057 100 18v7c0 .943 0 1.414-.293 1.707S98.943 27 98 27H78c-.943 0-1.414 0-1.707-.293S76 25.943 76 25v-7z" fill="#8796a1"/><rect x="1" y="1" width="118" height="90" rx="3" stroke="#ccc" stroke-width="2"/></svg>
